X: 161709
T: Pirate Ship
S: B.Breathnach:"Ceol Rince na hEireann" IV/96 (gan ainm)
Z: B.Black
L: 1/8
M: 4/4
R: reel
K: G
G3c Bdgb|agfa gfgc|BGBd cBAB|cedc BG G2 :|
bagb adfa|gfgb agfa|bagf gdcB|ecdc BG G2|
bgfg dgfa|gfgb agfa|bBaB gBfB|cedc BG G2 ||
